**kern	**kern	**kern	**kern	**kern	**kern	**kern	**kern	**kern	**kern	**kern	**kern	**kern	**kern	**kern	**kern	**kern	**kern
*ITrd7c12	*	*	*	*	*	*ITrd-2c-3	*ITrd-2c-3	*ITrd5c9	*ITrd5c9	*	*	*ITrd1c2	*ITrd1c2	*	*	*	*
*	*Icello	*Iviola	*Ivioln	*Ivioln	*Itimpa	*	*	*	*	*Ifagot	*Ifagot	*	*	*Ioboe	*Ioboe	*Iflt	*Iflt
*Icbass	*I"Violoncello	*I"Viola	*I#2	*I#1	*I"Timpani	*Itromp	*Itromp	*Icor	*Icor	*I#2	*I#1	*Iclars	*Iclars	*I#2	*I#1	*I#2	*I#1
*I"Basso	*	*	*I"Violino II	*I"Violino I	*	*I#2	*I#1	*I#2	*I#1	*I"Fagotto 2	*I"Fagotto 1	*I#2	*I#1	*I"Oboe 2	*I"Oboe 1	*I"Flauto 2	*I"Flauto 1
*	*	*	*	*	*	*I"Tromba 2	*I"Tromba 1	*I"Corno 2	*I"Corno 1	*	*	*I"Clarinetto 2	*I"Clarinetto 1	*	*	*	*
*>[A,A,B,B,C,D,D,E,E,F]	*>[A,A,B,B,C,D,D,E,E,F]	*>[A,A,B,B,C,D,D,E,E,F]	*>[A,A,B,B,C,D,D,E,E,F]	*>[A,A,B,B,C,D,D,E,E,F]	*>[A,A,B,B,C,D,D,E,E,F]	*>[A,A,B,B,C,D,D,E,E,F]	*>[A,A,B,B,C,D,D,E,E,F]	*>[A,A,B,B,C,D,D,E,E,F]	*>[A,A,B,B,C,D,D,E,E,F]	*>[A,A,B,B,C,D,D,E,E,F]	*>[A,A,B,B,C,D,D,E,E,F]	*>[A,A,B,B,C,D,D,E,E,F]	*>[A,A,B,B,C,D,D,E,E,F]	*>[A,A,B,B,C,D,D,E,E,F]	*>[A,A,B,B,C,D,D,E,E,F]	*>[A,A,B,B,C,D,D,E,E,F]	*>[A,A,B,B,C,D,D,E,E,F]
*>norep[A,B,C,D,E,F]	*>norep[A,B,C,D,E,F]	*>norep[A,B,C,D,E,F]	*>norep[A,B,C,D,E,F]	*>norep[A,B,C,D,E,F]	*>norep[A,B,C,D,E,F]	*>norep[A,B,C,D,E,F]	*>norep[A,B,C,D,E,F]	*>norep[A,B,C,D,E,F]	*>norep[A,B,C,D,E,F]	*>norep[A,B,C,D,E,F]	*>norep[A,B,C,D,E,F]	*>norep[A,B,C,D,E,F]	*>norep[A,B,C,D,E,F]	*>norep[A,B,C,D,E,F]	*>norep[A,B,C,D,E,F]	*>norep[A,B,C,D,E,F]	*>norep[A,B,C,D,E,F]
=1	=1	=1	=1	=1	=1	=1	=1	=1	=1	=1	=1	=1	=1	=1	=1	=1	=1
*>A	*>A	*>A	*>A	*>A	*>A	*>A	*>A	*>A	*>A	*>A	*>A	*>A	*>A	*>A	*>A	*>A	*>A
*staff:9	*staff:9	*staff:10	*staff:11	*staff:12	*staff:13	*staff:14	*staff:14	*staff:15	*staff:15	*staff:16	*staff:16	*staff:17	*staff:17	*staff:18	*staff:18	*staff:19	*staff:19
*clefF4	*clefF4	*clefC3	*clefG2	*clefG2	*clefF4	*clefG2	*clefG2	*clefG2	*clefG2	*clefF4	*clefF4	*clefG2	*clefG2	*clefG2	*clefG2	*clefG2	*clefG2
*k[b-e-a-]	*k[b-e-a-]	*k[b-e-a-]	*k[b-e-a-]	*k[b-e-a-]	*M3/4	*M3/4	*M3/4	*M3/4	*M3/4	*k[b-e-a-]	*k[b-e-a-]	*k[b-e-a-]	*k[b-e-a-]	*k[b-e-a-]	*k[b-e-a-]	*k[b-e-a-]	*k[b-e-a-]
*M3/4	*M3/4	*M3/4	*M3/4	*M3/4	*	*	*	*	*	*M3/4	*M3/4	*M3/4	*M3/4	*M3/4	*M3/4	*M3/4	*M3/4
4r	4r	4b-'	4bb-'	4bb-'	4r	4r	4r	4r	4r	4r	4r	4b-'y	4bb-'	4r	4r	4r	4r
=2	=2	=2	=2	=2	=2	=2	=2	=2	=2	=2	=2	=2	=2	=2	=2	=2	=2
2.r	2.r	4g'	4gg'	4gg'	2.r	2.r	2.r	2.r	2.r	2.r	2.r	4g'y	4gg'	2.r	2.r	2.r	2.r
.	.	4e-'	4ee-'	4ee-'	.	.	.	.	.	.	.	4e-'y	4ee-'	.	.	.	.
.	.	4B-'	4b-'	4b-'	.	.	.	.	.	.	.	4B-'	4b-'y	.	.	.	.
=3	=3	=3	=3	=3	=3	=3	=3	=3	=3	=3	=3	=3	=3	=3	=3	=3	=3
4r	4r	4G'	4g'	4g'	4r	4ryy	4r	4ryy	4r	4r	4r	4G'	4g'y	4r	4r	4r	4r
4r	4r	4r	4r	4r	4r	4ryy	4r	4ryy	4r	4r	4r	4ryy	4r	4r	4r	4r	4r
4GG'	4G'	4B-'	4e-'	4e-'	4E'	4e-'	4ee-'y	4E-'	4e-'y	4B-'	4B-'	4ryy	4r	4ee-'	4ee-'	4eee-'	4eee-'
=4	=4	=4	=4	=4	=4	=4	=4	=4	=4	=4	=4	=4	=4	=4	=4	=4	=4
4FF'	4F'	4A-'	4d'	4d'	4BB'	4B-'	4b-'y	4BB-'	4B-'y	4A-'	4A-'	2.r	2.r	4dd'	4dd'	4ddd'	4ddd'
4FF'	4F'	4A-'	4d'	4d'	4BB'	4B-'	4b-'y	4BB-'	4B-'y	4A-'	4A-'	.	.	4dd'	4dd'	4ddd'	4ddd'
4EE-'	4E-'	4G'	4c'	4c'	4BB'	4B-'	4b-'y	4BB-'	4B-'y	4G'	4G'	.	.	4cc'	4cc'	4ccc'	4ccc'
=5	=5	=5	=5	=5	=5	=5	=5	=5	=5	=5	=5	=5	=5	=5	=5	=5	=5
4DD'	4D'	4F'	4B-'	4B-'	4BB'	4B-'	4b-'y	4BB-'	4B-'y	4F'	4F'	4ryy	4r	4b-'	4b-'	4bb-'	4bb-'
4r	4r	4r	4r	4r	4r	4ryy	4r	4ryy	4r	4r	4r	4ryy	4r	4r	4r	4r	4r
4r	4r	4b-'	4bb-'	4bb-'	4r	4ryy	4r	4ryy	4r	4r	4r	4b-'y	4bb-'	4r	4r	4r	4r
=6	=6	=6	=6	=6	=6	=6	=6	=6	=6	=6	=6	=6	=6	=6	=6	=6	=6
2.r	2.r	4a-'	4aa-'	4aa-'	2.r	2.r	2.r	2.r	2.r	2.r	2.r	4a-'y	4aa-'	2.r	2.r	2.r	2.r
.	.	4f'	4ff'	4ff'	.	.	.	.	.	.	.	4f'y	4ff'	.	.	.	.
.	.	4d'	4dd'	4dd'	.	.	.	.	.	.	.	4d'	4dd'y	.	.	.	.
=7	=7	=7	=7	=7	=7	=7	=7	=7	=7	=7	=7	=7	=7	=7	=7	=7	=7
4r	4r	4B-'	4b-'	4b-'	4r	4ryy	4r	4ryy	4r	4r	4r	4B-'	4b-'y	4ryy	4r	4r	4r
4r	4r	4r	4r	4r	4r	4ryy	4r	4ryy	4r	4r	4r	4ryy	4r	4ryy	4r	4r	4r
4DD'	4D'	4B-'	4f'	4a-'	4BB'	4b-'y	4ff'	4B-'y	4f'	4f'	4f'	4ryy	4r	4b-'y	4aa-'	4aa-'	4aa-'
=8	=8	=8	=8	=8	=8	=8	=8	=8	=8	=8	=8	=8	=8	=8	=8	=8	=8
4EE-'	4E-'	4B-'	4e-'	4g'	4E'	4ee-'y	4gg'	4e-'y	4g'	4e-'	4e-'	2.r	2.r	4b-'y	4gg'	4gg'	4gg'
4EE-'	4E-'	4e-'	4B-'	4g'	4E'	4ee-'y	4gg'	4e-'y	4g'	4B-'	4B-'	.	.	4ee-'y	4gg'	4gg'	4gg'
4BBB-'	4BB-'	4d'	4A-'	4f'	4BB'	4b-'y	4ff'	4B-'y	4f'	4A-'	4A-'	.	.	4dd'y	4ff'	4ff'	4ff'
=9	=9	=9	=9	=9	=9	=9	=9	=9	=9	=9	=9	=9	=9	=9	=9	=9	=9
4EEE-	4EE-	4e-'	4G'	4e-'	4E'	4g'	4ee-'y	4G'	4e-'y	4G'	4G'	4ryy	4r	4ee-'	4ee-'	4ee-'	4ee-'
4r	4r	4r	4r	4r	4r	4ryy	4r	4ryy	4r	4r	4r	4ryy	4r	4r	4r	4r	4r
4r	4r	4r	4r	4bb-'	4r	4ryy	4r	4ryy	4r	4r	4r	4b-'y	4bb-'	4r	4r	4r	4r
=10	=10	=10	=10	=10	=10	=10	=10	=10	=10	=10	=10	=10	=10	=10	=10	=10	=10
*staff:1	*staff:1	*staff:2	*staff:3	*staff:4	*	*	*	*staff:5	*staff:5	*staff:6	*staff:6	*staff:7	*staff:7	*staff:8	*staff:8	*	*
2.r	2.r	4r	4r	4gg	2.ryy	2.ryy	2.ryy	2.r	2.r	4r	4r	4g	4gg	2.r	2.r	2.ryy	2.ryy
.	.	4r	4r	4ee-	.	.	.	.	.	4r	4r	4e-	4ee-	.	.	.	.
.	.	4e-'	4g'	4cc'	.	.	.	.	.	4e-'	4e-'	4g'y	4cc'	.	.	.	.
=11	=11	=11	=11	=11	=11	=11	=11	=11	=11	=11	=11	=11	=11	=11	=11	=11	=11
2.r	2.r	4fz	4a-z	4bnz	2.ryy	2.ryy	2.ryy	2.r	2.r	4fz	4fz	4a-	4bz	4r	4r	2.ryy	2.ryy
.	.	4e-	4g	4cc	.	.	.	.	.	4e-	4e-	4g	4cc	4r	4r	.	.
.	.	4r	4r	4gg'	.	.	.	.	.	4r	4r	4ryy	4r	4gg'	4gg'	.	.
=12	=12	=12	=12	=12	=12	=12	=12	=12	=12	=12	=12	=12	=12	=12	=12	=12	=12
2.r	2.r	4r	4r	4ee-	2.ryy	2.ryy	2.ryy	2.r	2.r	4r	4r	2.r	2.r	4ee-	4ee-	2.ryy	2.ryy
.	.	4r	4r	4cc	.	.	.	.	.	4r	4r	.	.	4cc	4cc	.	.
.	.	4d'	4f'	4b-X'	.	.	.	.	.	4d'	4d'	.	.	4b-'	4b-'	.	.
=13	=13	=13	=13	=13	=13	=13	=13	=13	=13	=13	=13	=13	=13	=13	=13	=13	=13
2.r	2.r	4e-z	4g-z	4anz	2.ryy	2.ryy	2.ryy	2.r	2.r	4e-z	4e-z	2.r	2.r	4anz	4anz	2.ryy	2.ryy
.	.	4d	4f	4b-	.	.	.	.	.	4d	4d	.	.	4b-	4b-	.	.
.	.	4r	4ff'	4ff'	.	.	.	.	.	4r	4r	.	.	4r	4r	.	.
=14	=14	=14	=14	=14	=14	=14	=14	=14	=14	=14	=14	=14	=14	=14	=14	=14	=14
4r	4r	4r	4ee-'	4ee-'	2.ryy	2.ryy	2.ryy	4r	4r	4r	4r	2.r	2.r	2.r	2.r	2.ryy	2.ryy
4EE-'	4E-'	4e-'	4cc'	4cc'	.	.	.	4e-	4e-	4e-'	4e-'	.	.	.	.	.	.
4CC'	4C'	4c'	4an'	4an'	.	.	.	4e-	4e-	4c'	4c'	.	.	.	.	.	.
=15	=15	=15	=15	=15	=15	=15	=15	=15	=15	=15	=15	=15	=15	=15	=15	=15	=15
4AAA'	4AAn'	4An'	4ff'	4ff'	2.ryy	2.ryy	2.ryy	4r	4r	4An'	4An'	2.r	2.r	2.r	2.r	2.ryy	2.ryy
4FF'	4F'	4f'	4dd'	4dd'	.	.	.	4f	4f	4f'	4f'	.	.	.	.	.	.
4DD'	4D'	4d'	4bn'	4bn'	.	.	.	4f	4f	4d'	4d'	.	.	.	.	.	.
=16	=16	=16	=16	=16	=16	=16	=16	=16	=16	=16	=16	=16	=16	=16	=16	=16	=16
4BBB'	4BBn'	4Bn'	4gg'	4gg'	2.ryy	2.ryy	2.ryy	4r	4r	4Bn'	4Bn'	2.r	2.r	2.r	2.r	2.ryy	2.ryy
4GG'	4G'	4g'	4ee-'	4ee-'	.	.	.	4g	4g	4g'	4g'	.	.	.	.	.	.
4EE-'	4E-'	4e-'	4cc'	4cc'	.	.	.	4g	4g	4e-'	4e-'	.	.	.	.	.	.
=17	=17	=17	=17	=17	=17	=17	=17	=17	=17	=17	=17	=17	=17	=17	=17	=17	=17
4CC'	4C'	4c'	4aanz	4aanz	2.ryy	2.ryy	2.ryy	2f	2f	4c'	4c'	2.r	2.r	2.r	2.r	2.ryy	2.ryy
4DD'	4D'	4d'	4bb-	4bb-	.	.	.	.	.	4d'	4d'	.	.	.	.	.	.
4GG-'	4G-'	4g-'	4b-'	4een'	.	.	.	4r	4r	4G-'	4G-'	.	.	.	.	.	.
=18	=18	=18	=18	=18	=18	=18	=18	=18	=18	=18	=18	=18	=18	=18	=18	=18	=18
2.FF	2.F	4f'	4dd'	4ff'	2.ryy	2.ryy	2.ryy	2.r	2.r	2.F	2.F	2.r	2.r	2.r	2.r	2.ryy	2.ryy
.	.	4d'	4d'	4b-'	.	.	.	.	.	.	.	.	.	.	.	.	.
.	.	.	8fq	.	.	.	.	.	.	.	.	.	.	.	.	.	.
.	.	4c'	4e-'	4an'	.	.	.	.	.	.	.	.	.	.	.	.	.
=19	=19	=19	=19	=19	=19	=19	=19	=19	=19	=19	=19	=19	=19	=19	=19	=19	=19
*	*	*	*	*	*staff:5	*staff:6	*staff:6	*staff:7	*staff:7	*staff:8	*staff:8	*staff:9	*staff:9	*staff:10	*staff:10	*staff:11	*staff:11
2.BBB-z	2.BB-z	4B-'	2.d	2b-	4BB	2.B-	[2.b-	4ryy	4r	4BB-	4BB-	4ryy	4r	4ryy	4r	2.r	2.r
.	.	4f'	.	.	4r	.	.	4B-	4f	4d	4f	4f	4ff	4b-	4dd	.	.
.	.	4d'	.	4ff	4r	.	.	4B-	4f	4d	4f	4f	4ff	4b-	4dd	.	.
=20	=20	=20	=20	=20	=20	=20	=20	=20	=20	=20	=20	=20	=20	=20	=20	=20	=20
2.BBB-z	2.BB-z	4r	4c	8een	4BB	4B-	4b-]	4ryy	4r	4ryy	4r	[2.f	8ee	4ryy	4r	4r	4r
.	.	.	.	8ff	.	.	.	.	.	.	.	.	8ff	.	.	.	.
.	.	4c'	4An 4e-	8gg	4r	4B-	4b-	4f	4f	4e-	4f	.	8gg	4an	4ee-	4ccc	4ccc
.	.	.	.	8ff	.	.	.	.	.	.	.	.	8ff	.	.	.	.
.	.	4c'	4A 4e-	8ee-	4r	4B-	4b-	4f	4f	4e-	4f	.	8ee-	4a	4ee-	4ccc	4ccc
.	.	.	.	8cc	.	.	.	.	.	.	.	.	8cc	.	.	.	.
=21	=21	=21	=21	=21	=21	=21	=21	=21	=21	=21	=21	=21	=21	=21	=21	=21	=21
2.BBB-z	2.BB-z	8B-	8B- 8d	2b-	4BB	2.B-	[2.b-	4ryy	4r	4ryy	4r	2.f_	2b-	4ryy	4r	2ddd	2ddd
.	.	8d	8f	.	.	.	.	.	.	.	.	.	.	.	.	.	.
.	.	8e-	8g	.	4r	.	.	4B-	4f	4d	4f	.	.	4b-	4dd	.	.
.	.	8d	8f	.	.	.	.	.	.	.	.	.	.	.	.	.	.
.	.	8c	8e-	4dd	4r	.	.	4B-	4f	4d	4f	.	4dd	4b-	4dd	4bb-	4bb-
.	.	8B-	8d	.	.	.	.	.	.	.	.	.	.	.	.	.	.
=22	=22	=22	=22	=22	=22	=22	=22	=22	=22	=22	=22	=22	=22	=22	=22	=22	=22
2.BBB-z	2.BB-z	2An	4c' 4e-'y	4f	4BB	4B-	4b-]	4ryy	4r	4ryy	4r	2.f_	4r	4ryy	4r	4ff	4ff
.	.	.	4c' 4e-'y	8g-	4r	4B-	4b-	4f	4f	4e-	4f	.	4cc	4an	4ee-	8gg-	8gg-
.	.	.	.	8gn	.	.	.	.	.	.	.	.	.	.	.	8ggn	8ggn
.	.	4f	4c' 4e-'y	8a-X	4r	4B-	4b-	4f	4f	4e-	4f	.	4cc	4a	4ee-	8aa-	8aa-
.	.	.	.	8an	.	.	.	.	.	.	.	.	.	.	.	8aan	8aan
=23	=23	=23	=23	=23	=23	=23	=23	=23	=23	=23	=23	=23	=23	=23	=23	=23	=23
2.BBB-z	2.BB-z	2d	8B- 8d	2b-	16BB	2.B-	[2.b-	4ryy	4r	4ryy	4r	2.f_	4dd	4ryy	4r	2bb-	2bb-
.	.	.	.	.	16BB	.	.	.	.	.	.	.	.	.	.	.	.
.	.	.	8f	.	16BB	.	.	.	.	.	.	.	.	.	.	.	.
.	.	.	.	.	16BB	.	.	.	.	.	.	.	.	.	.	.	.
.	.	.	8b-	.	16BB	.	.	4B-	4f	4d	4f	.	4ff	4b-	4dd	.	.
.	.	.	.	.	16BB	.	.	.	.	.	.	.	.	.	.	.	.
.	.	.	8f	.	16BB	.	.	.	.	.	.	.	.	.	.	.	.
.	.	.	.	.	16BB	.	.	.	.	.	.	.	.	.	.	.	.
.	.	4r	8e-	4ff	16BB	.	.	4B-	4f	4d	4f	.	4ff	4b-	4dd	4r	4r
.	.	.	.	.	16BB	.	.	.	.	.	.	.	.	.	.	.	.
.	.	.	8d	.	16BB	.	.	.	.	.	.	.	.	.	.	.	.
.	.	.	.	.	16BB	.	.	.	.	.	.	.	.	.	.	.	.
=24	=24	=24	=24	=24	=24	=24	=24	=24	=24	=24	=24	=24	=24	=24	=24	=24	=24
2.BBB-z	2.BB-z	4An	4c	8een	16BB	4B-	4b-]	4ryy	4r	4ryy	4r	2.f_	8ee	4ryy	4r	4r	4r
.	.	.	.	.	16BB	.	.	.	.	.	.	.	.	.	.	.	.
.	.	.	.	8ff	16BB	.	.	.	.	.	.	.	8ff	.	.	.	.
.	.	.	.	.	16BB	.	.	.	.	.	.	.	.	.	.	.	.
.	.	4F	4An' 4e-'y	8gg	16BB	4B-	4b-	4f	4f	4e-	4f	.	8gg	4an	4ee-	4ccc	4ccc
.	.	.	.	.	16BB	.	.	.	.	.	.	.	.	.	.	.	.
.	.	.	.	8ff	16BB	.	.	.	.	.	.	.	8ff	.	.	.	.
.	.	.	.	.	16BB	.	.	.	.	.	.	.	.	.	.	.	.
.	.	4f	4A' 4e-'y	8ee-	16BB	4B-	4b-	4f	4f	4e-	4f	.	8ee-	4a	4ee-	4ccc	4ccc
.	.	.	.	.	16BB	.	.	.	.	.	.	.	.	.	.	.	.
.	.	.	.	8cc	16BB	.	.	.	.	.	.	.	8cc	.	.	.	.
.	.	.	.	.	16BB	.	.	.	.	.	.	.	.	.	.	.	.
=25	=25	=25	=25	=25	=25	=25	=25	=25	=25	=25	=25	=25	=25	=25	=25	=25	=25
*staff:10	*staff:11	*staff:12	*staff:13	*staff:14	*staff:15	*staff:16	*staff:16	*staff:17	*staff:17	*staff:18	*staff:18	*staff:19	*staff:19	*staff:20	*staff:20	*staff:21	*staff:21
.	.	8gq	.	.	.	.	.	.	.	.	.	.	.	.	.	.	.
2.BBB-z	2.BB-z	4f	8d	2b-	16BB	2.B-	[2.b-	4ryy	4r	4ryy	4r	2.f]	2b-	4ryy	4r	2ddd	2ddd
.	.	.	.	.	16BB	.	.	.	.	.	.	.	.	.	.	.	.
.	.	.	8f	.	16BB	.	.	.	.	.	.	.	.	.	.	.	.
.	.	.	.	.	16BB	.	.	.	.	.	.	.	.	.	.	.	.
.	.	8d	8b-	.	16BB	.	.	4B-	4f	4d	4f	.	.	4b-	4dd	.	.
.	.	.	.	.	16BB	.	.	.	.	.	.	.	.	.	.	.	.
.	.	8e-	8cc	.	16BB	.	.	.	.	.	.	.	.	.	.	.	.
.	.	.	.	.	16BB	.	.	.	.	.	.	.	.	.	.	.	.
.	.	8f	8dd	4bb-	16BB	.	.	4B-	4f	4d	4f	.	4dd	4b-	4dd	4bb-	4bb-
.	.	.	.	.	16BB	.	.	.	.	.	.	.	.	.	.	.	.
.	.	8d	8b-	.	16BB	.	.	.	.	.	.	.	.	.	.	.	.
.	.	.	.	.	16BB	.	.	.	.	.	.	.	.	.	.	.	.
=26	=26	=26	=26	=26	=26	=26	=26	=26	=26	=26	=26	=26	=26	=26	=26	=26	=26
4BBB-z	4BB-z	4c	4ee-	8aan	16BB	4B-	4b-]	4ryy	4r	4ryy	4r	4ryy	4r	4ryy	4r	8aan	8aan
.	.	.	.	.	16BB	.	.	.	.	.	.	.	.	.	.	.	.
.	.	.	.	8bb-	16BB	.	.	.	.	.	.	.	.	.	.	8bb-	8bb-
.	.	.	.	.	16BB	.	.	.	.	.	.	.	.	.	.	.	.
4BBB-	4BB-	4An	4c 4e-	8ccc	16BB	4B-	4b-	4f	4f	4e-	4f	4a	4ee-	4cc	4aan	8ccc	8ccc
.	.	.	.	.	16BB	.	.	.	.	.	.	.	.	.	.	.	.
.	.	.	.	8ff	16BB	.	.	.	.	.	.	.	.	.	.	8ff	8ff
.	.	.	.	.	16BB	.	.	.	.	.	.	.	.	.	.	.	.
4BBB-	4BB-	4f	4c 4e-	8gg	16BB	4B-	4b-	4f	4f	4e-	4f	4a	4ee-	4cc	4aa	8gg	8gg
.	.	.	.	.	16BB	.	.	.	.	.	.	.	.	.	.	.	.
.	.	.	.	8aa	16BB	.	.	.	.	.	.	.	.	.	.	8aa	8aa
.	.	.	.	.	16BB	.	.	.	.	.	.	.	.	.	.	.	.
=27	=27	=27	=27	=27	=27	=27	=27	=27	=27	=27	=27	=27	=27	=27	=27	=27	=27
4BBB-	4BB-	4B-	4B- 4d	4bb-	4BB	4B-	4b-	4B-	4f	4d	4f	4b-	4dd	4dd	4bb-	4bb-	4bb-
4r	4r	4r	4r	4r	4r	4ryy	4r	4ryy	4r	4ryy	4r	4ryy	4r	4ryy	4r	4r	4r
=28:||:	=28:||:	=28:||:	=28:||:	=28:||:	=28:||:	=28:||:	=28:||:	=28:||:	=28:||:	=28:||:	=28:||:	=28:||:	=28:||:	=28:||:	=28:||:	=28:||:	=28:||:
*>B	*>B	*>B	*>B	*>B	*>B	*>B	*>B	*>B	*>B	*>B	*>B	*>B	*>B	*>B	*>B	*>B	*>B
4r	4BB-'	4B-'	4B-'	4B-'	4r	4r	4r	4r	4r	4r	4r	4r	4r	4r	4r	4r	4r
=29	=29	=29	=29	=29	=29	=29	=29	=29	=29	=29	=29	=29	=29	=29	=29	=29	=29
2.r	4D'	4d'	4d'	4d'	2.r	2.r	2.r	2.r	2.r	2.r	2.r	2.r	2.r	2.r	2.r	2.r	2.r
.	4F'	4f'	4f'	4f'	.	.	.	.	.	.	.	.	.	.	.	.	.
.	4A-X'	4a-X'	4a-X'	4a-X'	.	.	.	.	.	.	.	.	.	.	.	.	.
=30	=30	=30	=30	=30	=30	=30	=30	=30	=30	=30	=30	=30	=30	=30	=30	=30	=30
2.r	2.c-	2.cc-	2cc-	2cc-	2.r	2.r	2.r	2.r	2.r	2.r	2.r	2.r	2.r	2.r	2.r	2.r	2.r
.	.	.	4a-	4a-	.	.	.	.	.	.	.	.	.	.	.	.	.
=31	=31	=31	=31	=31	=31	=31	=31	=31	=31	=31	=31	=31	=31	=31	=31	=31	=31
[2.DD-	[2.D-	2.A-	2.c-	4f'	2.r	2.r	2.r	2.r	2.r	[2.D-	[2.D-	2.a-X	2.ff	2.cc-	2.ff	2.ryy	2.aa-X
.	.	.	.	4f'	.	.	.	.	.	.	.	.	.	.	.	.	.
.	.	.	.	4f'	.	.	.	.	.	.	.	.	.	.	.	.	.
=32	=32	=32	=32	=32	=32	=32	=32	=32	=32	=32	=32	=32	=32	=32	=32	=32	=32
.	.	.	.	8a-q	.	.	.	.	.	.	.	.	.	.	.	.	.
2.DD-]	2.D-]	2.B-	2.B-	8g-	2.r	2.r	2.r	2.r	2.r	2.D-]	2.D-]	4b-	4gg-	2.b-	2.gg-	2.ryy	2.bb-
.	.	.	.	8f	.	.	.	.	.	.	.	.	.	.	.	.	.
.	.	.	.	8g-	.	.	.	.	.	.	.	4ryy	4r	.	.	.	.
.	.	.	.	8a-	.	.	.	.	.	.	.	.	.	.	.	.	.
.	.	.	.	4g-'	.	.	.	.	.	.	.	4ryy	4r	.	.	.	.
=33	=33	=33	=33	=33	=33	=33	=33	=33	=33	=33	=33	=33	=33	=33	=33	=33	=33
2.DD-	2.D-	2.a-	2.f	4cc-'	2.r	2.r	2.r	2.r	2.r	2.ryy	4c-'	2.r	2.r	2.r	2.r	2.ryy	2.aa-
.	.	.	.	4cc-'	.	.	.	.	.	.	4c-'	.	.	.	.	.	.
.	.	.	.	4cc-'	.	.	.	.	.	.	4c-'	.	.	.	.	.	.
=34	=34	=34	=34	=34	=34	=34	=34	=34	=34	=34	=34	=34	=34	=34	=34	=34	=34
*staff:1	*staff:2	*staff:3	*staff:4	*staff:5	*	*	*	*	*	*	*staff:6	*staff:7	*staff:7	*staff:8	*staff:8	*	*staff:9
.	.	.	.	8cc-q	.	.	.	.	.	.	8c-q	.	.	.	.	.	.
4DD	4Dn	4f'	4a-'	8b-	2.ryy	2.ryy	2.ryy	2.ryy	2.ryy	2.ryy	8B-	4r	4r	4ff'y	4aa-X'	2.ryy	4ff
.	.	.	.	8an	.	.	.	.	.	.	8An	.	.	.	.	.	.
4r	4d'	4f'	4a-'	8b-	.	.	.	.	.	.	8B-	4r	4r	4ff'y	4aa-'	.	4r
.	.	.	.	8cc-X	.	.	.	.	.	.	8c-X	.	.	.	.	.	.
4r	4d'	4f'	4a-'	4b-'	.	.	.	.	.	.	4B-'	4b-'	4b-'	4ff'y	4aa-'	.	4r
=35	=35	=35	=35	=35	=35	=35	=35	=35	=35	=35	=35	=35	=35	=35	=35	=35	=35
*	*	*	*	*	*	*	*	*	*	*	*	*	*	*	*	*staff:9	*
.	8fq	8fq	8a-q	.	.	.	.	.	.	.	.	.	.	.	.	.	.
2.EE-	8e-	8e-	8gn	4dd-'	2.ryy	2.ryy	2.ryy	2.ryy	2.ryy	2.ryy	4d-'	4b-'	4b-'	4ee-'y	4ggn'	2.r	2.r
.	8d	8d	8f	.	.	.	.	.	.	.	.	.	.	.	.	.	.
.	8e-	8e-	8g	4dd-'	.	.	.	.	.	.	4d-'	4b-'	4b-'	4ryy	4r	.	.
.	8f	8f	8a-	.	.	.	.	.	.	.	.	.	.	.	.	.	.
.	4e-'	4e-'	4g'	4dd-'	.	.	.	.	.	.	4d-'	4b-'	4b-'	4ryy	4r	.	.
=36	=36	=36	=36	=36	=36	=36	=36	=36	=36	=36	=36	=36	=36	=36	=36	=36	=36
.	.	.	.	8dd-q	.	.	.	.	.	.	8d-q	.	.	.	.	.	.
4EE	4en'	4g'	4b-'	8cc	2.ryy	2.ryy	2.ryy	2.ryy	2.ryy	2.ryy	8c	4g'	4g'	4gg'y	4bb-'	2.r	2.r
.	.	.	.	8bn	.	.	.	.	.	.	8Bn	.	.	.	.	.	.
4r	4e'	4g'	4b-'	8cc	.	.	.	.	.	.	8c	4r	4r	4gg'y	4bb-'	.	.
.	.	.	.	8dd-X	.	.	.	.	.	.	8d-X	.	.	.	.	.	.
4r	4e'	4g'	4b-'	4cc'	.	.	.	.	.	.	4c'	4cc'	4cc'	4gg'y	4bb-'	.	.
=37	=37	=37	=37	=37	=37	=37	=37	=37	=37	=37	=37	=37	=37	=37	=37	=37	=37
.	8gq	8gq	8b-q	.	.	.	.	.	.	.	.	.	.	.	.	.	.
2.FF	8f	8f	8an	4ee-X'	2.ryy	2.ryy	2.ryy	2.ryy	2.ryy	2.ryy	4e-X'	4cc'	4cc'	4ff'y	4aan'	2.r	2.r
.	8en	8en	8g	.	.	.	.	.	.	.	.	.	.	.	.	.	.
.	8f	8f	8a	4ee-'	.	.	.	.	.	.	4e-'	4cc'	4cc'	4ryy	4r	.	.
.	8g	8g	8b-	.	.	.	.	.	.	.	.	.	.	.	.	.	.
.	4f'	4f'	4a'	4ee-'	.	.	.	.	.	.	4e-'	4cc'	4cc'	4ryy	4r	.	.
=38	=38	=38	=38	=38	=38	=38	=38	=38	=38	=38	=38	=38	=38	=38	=38	=38	=38
.	.	.	.	8ee-q	.	.	.	.	.	.	8e-q	.	.	.	.	.	.
4FF#	4f#'	4an'	4cc'	8ddn	2.ryy	2.ryy	2.ryy	2.ryy	2.ryy	2.ryy	8dn	4a	4a	4aan'y	4ccc'	2.r	2.r
.	.	.	.	8cc	.	.	.	.	.	.	8c	.	.	.	.	.	.
4r	4f#'	4a'	4cc'	8dd	.	.	.	.	.	.	8d	4r	4r	4aa'y	4ccc'	.	.
.	.	.	.	8ee-	.	.	.	.	.	.	8e-	.	.	.	.	.	.
4r	4f#'	4a'	4cc'	4dd'	.	.	.	.	.	.	4d'	4dd'	4dd'	4aa'y	4ccc'	.	.
=39	=39	=39	=39	=39	=39	=39	=39	=39	=39	=39	=39	=39	=39	=39	=39	=39	=39
*	*	*	*	*	*	*	*	*	*	*staff:6	*	*	*	*	*	*	*
.	8anq	8anq	8ccq	.	.	.	.	.	.	.	.	.	.	.	.	.	.
4GG'	8g	8g	8b-	4ddd'	2.ryy	2.ryy	2.ryy	2.ryy	2.ryy	2.G	2.G	4dd'	4dd'	4gg'y	4bb-'	4ddd'	4ddd'
.	8f#	8f#	8an	.	.	.	.	.	.	.	.	.	.	.	.	.	.
4GG'	8g	8g	8b-	4ddd'	.	.	.	.	.	.	.	4dd'	4dd'	4ryy	4r	4ddd'	4ddd'
.	8an	8an	8cc	.	.	.	.	.	.	.	.	.	.	.	.	.	.
4GG'	4g'	4g'	4b-'	4ddd'	.	.	.	.	.	.	.	4dd'	4dd'	4ryy	4r	4ddd'	4ddd'
=40	=40	=40	=40	=40	=40	=40	=40	=40	=40	=40	=40	=40	=40	=40	=40	=40	=40
*staff:12	*staff:12	*staff:13	*staff:14	*staff:15	*	*	*	*staff:16	*staff:16	*staff:17	*staff:17	*staff:18	*staff:18	*staff:19	*staff:19	*staff:20	*staff:20
.	.	.	.	8ggq	.	.	.	.	.	.	.	.	.	.	.	8ggq	8ggq
2.AA	2.An	2.an	4cc'	8ff#	2.ryy	2.ryy	2.ryy	2.r	2.r	2.An	2.An	[2.dd	[2.dd	2.r	2.r	8ff#	8ff#
.	.	.	.	8een	.	.	.	.	.	.	.	.	.	.	.	8een	8een
.	.	.	4cc'	8ff#	.	.	.	.	.	.	.	.	.	.	.	8ff#	8ff#
.	.	.	.	8gg	.	.	.	.	.	.	.	.	.	.	.	8gg	8gg
.	.	.	4cc'	4ff#'	.	.	.	.	.	.	.	.	.	.	.	4ff#'	4ff#'
=41	=41	=41	=41	=41	=41	=41	=41	=41	=41	=41	=41	=41	=41	=41	=41	=41	=41
2.BB-	2.B-	4b-	4dd	8gg	2.ryy	2.ryy	2.ryy	2.r	2.r	2.B-	2.B-	2dd]	2dd]	2.r	2.r	8gg	8gg
.	.	.	.	8dd	.	.	.	.	.	.	.	.	.	.	.	8dd	8dd
.	.	4B-	4d	8bb-	.	.	.	.	.	.	.	.	.	.	.	8bb-	8bb-
.	.	.	.	8gg	.	.	.	.	.	.	.	.	.	.	.	8gg	8gg
.	.	4B-	4d	8dd	.	.	.	.	.	.	.	4r	4r	.	.	8dd	8dd
.	.	.	.	8b-	.	.	.	.	.	.	.	.	.	.	.	8b-	8b-
=42	=42	=42	=42	=42	=42	=42	=42	=42	=42	=42	=42	=42	=42	=42	=42	=42	=42
2.C	2.c	2.c	2.e-	8an	2.ryy	2.ryy	2.ryy	2.r	2.r	2.c	2.c	2.r	2.r	2.r	2.r	8an	8an
.	.	.	.	8b-	.	.	.	.	.	.	.	.	.	.	.	8b-	8b-
.	.	.	.	8bn	.	.	.	.	.	.	.	.	.	.	.	8bn	8bn
.	.	.	.	8cc	.	.	.	.	.	.	.	.	.	.	.	8cc	8cc
.	.	.	.	8cc#	.	.	.	.	.	.	.	.	.	.	.	8cc#	8cc#
.	.	.	.	8dd	.	.	.	.	.	.	.	.	.	.	.	8dd	8dd
=43	=43	=43	=43	=43	=43	=43	=43	=43	=43	=43	=43	=43	=43	=43	=43	=43	=43
4r	4r	4r	4c	4ee-	2.ryy	2.ryy	2.ryy	2.r	2.r	4r	4r	2.r	2.r	2.r	2.r	4ee-	4ee-
4r	4r	4r	4B-	4dd	.	.	.	.	.	4r	4r	.	.	.	.	4dd	4dd
4D'	4d'	4d'	4An'	4f#'	.	.	.	.	.	4d'	4d'	.	.	.	.	4f#'	4f#'
=44	=44	=44	=44	=44	=44	=44	=44	=44	=44	=44	=44	=44	=44	=44	=44	=44	=44
4BB-'	4B-'	2G	4G	4g	2.ryy	2.ryy	2.ryy	2.r	2.r	4B-'	4B-'	2.r	2.r	2.r	2.r	4g	4g
4GG'	4G'	.	4r	4r	.	.	.	.	.	4G'	4G'	.	.	.	.	4r	4r
4DD'	4D'	4b-'	4bb-'	4bb-'	.	.	.	.	.	4D'	4D'	.	.	.	.	4bb-'	4bb-'
=45	=45	=45	=45	=45	=45	=45	=45	=45	=45	=45	=45	=45	=45	=45	=45	=45	=45
4BBB-'	4BB-'	4g'	4gg'	4gg'	2.ryy	2.ryy	2.ryy	2.r	2.r	4BB-'	4BB-'	2.r	2.r	2.r	2.r	4gg'	4gg'
4r	4r	4d'	4dd'	4dd'	.	.	.	.	.	4r	4r	.	.	.	.	4dd'	4dd'
4G'	4g'	4B-'	4b-'	4b-'	.	.	.	.	.	4g'	4g'	.	.	.	.	4b-'	4b-'
=46	=46	=46	=46	=46	=46	=46	=46	=46	=46	=46	=46	=46	=46	=46	=46	=46	=46
4E-'	4e-'	4G'	4g'	4g'	2.ryy	2.ryy	2.ryy	4ryy	4r	4e-'	4e-'	4ryy	4r	4ryy	4r	4g'	4g'
4BB-'	4B-'	4r	4r	4r	.	.	.	4ryy	4r	4B-'	4B-'	4ryy	4r	4ryy	4r	4r	4r
4GG'	4G'	4b-'	4bb-'	4bb-'	.	.	.	4E-'	4e-'y	4E-'	4E-'	4b-'y	4bb-'	4gg'y	4bb-'	4gg'y	4bb-'
=47	=47	=47	=47	=47	=47	=47	=47	=47	=47	=47	=47	=47	=47	=47	=47	=47	=47
4EE-'	4E-'	4g'	4gg'	4gg'	2.ryy	2.ryy	2.ryy	4G'	4g'y	4G'	4G'	4g'y	4gg'	4ee-'y	4gg'	4ee-'y	4gg'
4r	4r	4e-'	4ee-'	4ee-'	.	.	.	4B-'y	4b-'	4B-'	4B-'	4e-'y	4ee-'	4b-'y	4ee-'	4b-'y	4ee-'
4r	4r	4B-'	4b-'	4b-'	.	.	.	4e-'y	4ee-'	4e-'	4e-'	4B-'	4b-'y	4g'	4b-'y	4g'	4b-'y
=48	=48	=48	=48	=48	=48	=48	=48	=48	=48	=48	=48	=48	=48	=48	=48	=48	=48
*staff:1	*staff:1	*staff:2	*staff:3	*staff:4	*staff:5	*staff:6	*staff:6	*staff:7	*staff:7	*staff:8	*staff:8	*staff:9	*staff:9	*staff:10	*staff:10	*staff:11	*staff:11
4r	4r	4G'	4g'	4g'	4r	4ryy	4r	4g'y	4gg'	4g'	4g'	4G'	4g'y	4e-'	4g'y	4e-'	4g'y
4r	4r	4r	4r	4r	4r	4ryy	4r	4ryy	4r	4r	4r	4ryy	4r	2ryy	4r	2ryy	4r
4GG'	4G'	4B-'	4e-'	4e-'	4E'	4e-'	4ee-'y	4ryy	4r	4B-'	4B-'	4ryy	4r	.	4ee-'	.	4ee-'
!	!	!	!	!	!	!	!	!	!	!	!	!	!	!.	!	!	!
!	!	!	!	!	!	!	!	!	!	!	!	!	!	!.	!	!	!
!	!	!	!	!	!	!	!	!	!	!	!	!	!	!.	!	!	!
!!WARNING: This measure contained too many data records
=49	=49	=49	=49	=49	=49	=49	=49	=49	=49	=49	=49	=49	=49	=49	=49	=49	=49
4FF'	4F'	4A-'	4d'	4d'	4BB'	4B-'	4b-'y	2.r	2.r	4A-'	4A-'	2.r	2.r	4dd'	4dd'	2.ryy	4dd'
4FF'	4F'	4A-'	4d'	4d'	4BB'	4B-'	4b-'y	.	.	4A-'	4A-'	.	.	4dd'	4dd'	.	4dd'
4EE-'	4E-'	4G'	4c'	4c'	4BB'	4B-'	4b-'y	.	.	4G'	4G'	.	.	4cc'	4cc'	.	4cc'
=50	=50	=50	=50	=50	=50	=50	=50	=50	=50	=50	=50	=50	=50	=50	=50	=50	=50
4DD'	4D'	4F'	4B-'	4B-'	4BB'	4B-'	4b-'y	4ryy	4r	4F'	4F'	4ryy	4r	4b-'	4b-'	2ryy	4b-'
4r	4r	4r	4r	4r	4r	4ryy	4r	4ryy	4r	4r	4r	4ryy	4r	4r	4r	.	4r
4r	4r	4b-'	4bb-'	4bb-'	4r	4ryy	4r	4B-'y	4b-'	4BB-'	4BB-'	4b-'y	4bb-'	4dd'y	4bb-'	4d'y	4bb-'
=51	=51	=51	=51	=51	=51	=51	=51	=51	=51	=51	=51	=51	=51	=51	=51	=51	=51
2.r	2.r	4a-'	4aa-'	4aa-'	2.r	2.r	2.r	4f'y	4b-'	4D'	4D'	4a-'y	4aa-'	4ff'y	4aa-'	4f'y	4aa-'
.	.	4f'	4ff'	4ff'	.	.	.	4a-'y	4b-'	4F'	4F'	4f'y	4ff'	4a-'y	4ff'	4a-'y	4ff'
.	.	4d'	4dd'	4dd'	.	.	.	4a-'y	4b-'	4A-'	4A-'	4d'	4dd'y	4f'	4dd'y	4f'	4dd'y
=52	=52	=52	=52	=52	=52	=52	=52	=52	=52	=52	=52	=52	=52	=52	=52	=52	=52
4r	4r	4B-'	4b-'	4b-'	4r	4ryy	4r	4f'y	4b-'	4A-'	4A-'	4B-'	4b-'y	4d'	4b-'y	4d'	4b-'y
4r	4r	4r	4r	4r	4r	4ryy	4r	4ryy	4r	4r	4r	4ryy	4r	4ryy	4r	4ryy	4r
4C'z	4c'z	4c'z	4e-z	4a-'z	4E'z	4e-	4ee-	4ryy	4r	4r	4r	4ryy	4r	4ryy	4r	4ryy	4r
=53	=53	=53	=53	=53	=53	=53	=53	=53	=53	=53	=53	=53	=53	=53	=53	=53	=53
4BB-'	4B-'	4B-'	2e-	4g'	4E'	2e-	2ee-	2.r	2.r	2.r	2.r	2.r	2.r	2.r	2.r	2.r	2.r
4BB-'	4B-'	4B-'	.	4g'	4E'	.	.	.	.	.	.	.	.	.	.	.	.
4AA-'z	4A-'z	4A-'z	4e-z	4cc'z	4E'z	4e-	4ee-	.	.	.	.	.	.	.	.	.	.
=54	=54	=54	=54	=54	=54	=54	=54	=54	=54	=54	=54	=54	=54	=54	=54	=54	=54
4GG'	4G'	4G'	2e-	4b-'	4E'	2e-	2ee-	4ryy	4r	2.r	2.r	2.r	2.r	4r	4r	2.ryy	4r
4GG'	4G'	4G'	.	4b-'	4E'	.	.	4ryy	4r	.	.	.	.	4r	4r	.	4r
4r	4r	4gz	[4b-z	4ee-z	4r	4ryy	4r	4B-	4b-z	.	.	.	.	4gz	4gz	.	4ee-z
=55	=55	=55	=55	=55	=55	=55	=55	=55	=55	=55	=55	=55	=55	=55	=55	=55	=55
2.r	2.r	4f	4b-]	4dd	2.r	2.r	2.r	4B-	4b-	2.r	2.r	2.r	2.r	4f	4f	2.ryy	4dd
.	.	4a-z	2b-z	4ffz	.	.	.	4B-	4b-z	.	.	.	.	4a-z	4a-z	.	4ffz
.	.	4g	.	4ee-	.	.	.	4B-	4b-	.	.	.	.	4g	4g	.	4ee-
=56	=56	=56	=56	=56	=56	=56	=56	=56	=56	=56	=56	=56	=56	=56	=56	=56	=56
4Cz	4cz	4cz	2e-z 2ee-z	4aa-z	4Ez	4e-	4ee-	4E-	4e-	4cz	4cz	4r	4r	4ee-	4ee-	2.ryy	4aa-
4BB-	4B-	4B-	.	4gg	4E	4e-	4ee-	4E-	4e-	4B-	4B-	4r	4r	4ee-	4ee-	.	4gg
4AA-z	4A-z	4A-z	[4e-z [4ee-z	4cccz	4Ez	4e-	4ee-	4E-	4e-	4A-z	4A-z	4ccz	4ccz	4ee-	4cccz	.	4cccz
=57	=57	=57	=57	=57	=57	=57	=57	=57	=57	=57	=57	=57	=57	=57	=57	=57	=57
4GG	4G	4G	4e-] 4ee-]	4bb-	4E	4e-	4ee-	4E-	4e-	4G	4G	4b-	4b-	4ee-	4bb-	2.ryy	4bb-
4FFz	4Fz	4F'z	4aa-'z	4ddd'z	4r	4b-'y	4ff'z	4B-'y	4f'z	4Fz	4Fz	4dd'y	4ff'z	4dd'y	4aa-'z	.	4ddd'z
4EE-	4E-	4E-'	4gg'	4eee-'	4r	4ee-'y	4gg'	4e-'y	4g'	4E-	4E-	4ee-'y	4gg'	4ee-'y	4gg'	.	4eee-'
=58	=58	=58	=58	=58	=58	=58	=58	=58	=58	=58	=58	=58	=58	=58	=58	=58	=58
2DD;	2D;	2D;	2b-;y 2aa-;	2fff;	16BB	2b-;y	2ff;	2B-;y	2f;	2D;	2D;	2ff;y	2aa-;	2ff;y	2aa-;	2.ryy	2fff;
.	.	.	.	.	16BB	.	.	.	.	.	.	.	.	.	.	.	.
.	.	.	.	.	16BB	.	.	.	.	.	.	.	.	.	.	.	.
.	.	.	.	.	16BB	.	.	.	.	.	.	.	.	.	.	.	.
.	.	.	.	.	16BB	.	.	.	.	.	.	.	.	.	.	.	.
.	.	.	.	.	16BB	.	.	.	.	.	.	.	.	.	.	.	.
.	.	.	.	.	16BB	.	.	.	.	.	.	.	.	.	.	.	.
.	.	.	.	.	16BB	.	.	.	.	.	.	.	.	.	.	.	.
4r	4r	4r	4r	4An	4r	4ryy	4r	4ryy	4r	4r	4r	4ryy	4r	4ryy	4r	.	4r
=59	=59	=59	=59	=59	=59	=59	=59	=59	=59	=59	=59	=59	=59	=59	=59	=59	=59
2.r	2.r	2.r	2.r	4B-	2.r	2.r	2.r	2.r	2.r	2.r	2.r	2.r	2.r	2.r	2.r	2.r	2.r
.	.	.	.	4d	.	.	.	.	.	.	.	.	.	.	.	.	.
.	.	.	.	4f	.	.	.	.	.	.	.	.	.	.	.	.	.
=60	=60	=60	=60	=60	=60	=60	=60	=60	=60	=60	=60	=60	=60	=60	=60	=60	=60
*staff:7	*staff:7	*staff:8	*staff:9	*staff:10	*staff:11	*staff:12	*staff:12	*staff:13	*staff:13	*staff:14	*staff:14	*staff:15	*staff:15	*staff:16	*staff:16	*staff:17	*staff:17
2BB	2Bn	2Bn	2f	2a-X	2.r	2.r	2.r	2.r	2.r	2.r	2.r	2.r	2.r	2.r	2.r	2.r	2.r
4C	4c	4c	4e-	4g	.	.	.	.	.	.	.	.	.	.	.	.	.
=61	=61	=61	=61	=61	=61	=61	=61	=61	=61	=61	=61	=61	=61	=61	=61	=61	=61
2AA-X	2A-X	2A-X	4.e-	4.ccS	2.r	2.r	2.r	2.r	2.r	2.r	2.r	2.r	2.r	2.r	2.r	2.r	2.r
.	.	.	8f	8dd	.	.	.	.	.	.	.	.	.	.	.	.	.
4AA	4An	4An	4g-	4ee-	.	.	.	.	.	.	.	.	.	.	.	.	.
=62	=62	=62	=62	=62	=62	=62	=62	=62	=62	=62	=62	=62	=62	=62	=62	=62	=62
2.BB-	2.B-	2.B-	2.Gn 2.e-	2e-	2.r	2.r	2.r	2.r	2.r	2.r	2.r	2.r	2.r	2.r	2.r	2.r	2.r
.	.	.	.	4g	.	.	.	.	.	.	.	.	.	.	.	.	.
=63	=63	=63	=63	=63	=63	=63	=63	=63	=63	=63	=63	=63	=63	=63	=63	=63	=63
2BBB-	2BB-	2.F	2.A- 2.d	4b-	4r	4ryy	4r	4ryy	4r	2.r	2.r	2.r	2.r	2.r	2.r	2.r	2.r
.	.	.	.	4a-	4r	4ryy	4r	4ryy	4r	.	.	.	.	.	.	.	.
4BB-'	4B-'	.	.	4f	4BB	4b-'y	4bb-'	4B-'y	4b-'	.	.	.	.	.	.	.	.
=64	=64	=64	=64	=64	=64	=64	=64	=64	=64	=64	=64	=64	=64	=64	=64	=64	=64
4GG'	4G'	4G	4G 4e-	4e-	4E	4g'	4gg'y	4G'	4g'y	4ryy	4r	4ryy	4r	4r	4r	4r	4r
4EE-'	4E-'	4r	4r	4r	4r	4e-'	4ee-'y	4E-'	4e-'y	4ryy	4r	4ryy	4r	4r	4r	4r	4r
4BBB-'	4BB-'	4d	4f	4bb-'	4BB	4B-'	4b-'y	4BB-'	4B-'y	4d	4f	4dd	4ff	4bb-'	4bb-'	4bb-'	4bb-'
=65	=65	=65	=65	=65	=65	=65	=65	=65	=65	=65	=65	=65	=65	=65	=65	=65	=65
4EE-'	4E-'	2e-	4g	4gg'	4E	4e-'	4ee-'y	4E-'	4e-'y	2e-	2g	2ee-	2gg	4gg'	4gg'	4gg'	4gg'
4GG'	4G'	.	4b-	4ee-'	4r	4g'	4gg'y	4G'	4g'y	.	.	.	.	4ee-'	4ee-'	4ee-'	4ee-'
4BB-'	4B-'	4d	4f'	4b-'	4BB	4b-'y	4bb-'	4B-'y	4b-'	4d	4f	4dd	4ff	4b-'	4b-'	4b-'	4b-'
=66	=66	=66	=66	=66	=66	=66	=66	=66	=66	=66	=66	=66	=66	=66	=66	=66	=66
4GG'	4G'	2e-	4g	4ee-'	4E	4g'	4gg'y	4G'	4g'y	2e-	2g	2ee-	2gg	4ee-'	4ee-'	4ee-'	4ee-'
4EE-'	4E-'	.	4b-	4gg'	4r	4e-'	4ee-'y	4E-'	4e-'y	.	.	.	.	4gg'	4gg'	4gg'	4gg'
4BBB-'	4BB-'	4d	4f'	4bb-'	4BB	4B-'	4b-'y	4BB-'	4B-'y	4d	4f	4dd	4ff	4bb-'	4bb-'	4bb-'	4bb-'
=67	=67	=67	=67	=67	=67	=67	=67	=67	=67	=67	=67	=67	=67	=67	=67	=67	=67
4EE-'	4E-'	2e-	4g	4gg'	4E	4e-'	4ee-'y	4E-'	4e-'y	2e-	2g	2ee-	2gg	4gg'	4gg'	4gg'	4gg'
4GG'	4G'	.	4b-	4ee-'	4E	4g'	4gg'y	4G'	4g'y	.	.	.	.	4ee-'	4ee-'	4ee-'	4ee-'
4BB-'	4B-'	4d	4f'	4b-'	4BB	4b-'y	4bb-'	4B-'y	4b-'	4d	4f	4dd	4ff	4b-'	4b-'	4b-'	4b-'
=68	=68	=68	=68	=68	=68	=68	=68	=68	=68	=68	=68	=68	=68	=68	=68	=68	=68
4GG'	4G'	2e-	4g	4ee-'	4E	4g'	4gg'y	4G'	4g'y	2e-	2g	2ee-	2gg	4ee-'	4ee-'	4ee-'	4ee-'
4EE-'	4E-'	.	4b-	4gg'	4E	4e-'	4ee-'y	4E-'	4e-'y	.	.	.	.	4gg'	4gg'	4gg'	4gg'
4BBB-'	4BB-'	4d'	4f'	4bb-'	4BB	4B-'	4b-'y	4BB-'	4B-'y	4d	4f	4dd	4ff	4bb-'	4bb-'	4bb-'	4bb-'
=69	=69	=69	=69	=69	=69	=69	=69	=69	=69	=69	=69	=69	=69	=69	=69	=69	=69
4EE-'	4E-'	4e-'	4g	4gg'	4E	4e-'	4ee-'y	4E-'	4e-'y	4e-	4g	4ee-	4gg	4gg'	4gg'	4gg'	4gg'
4GG'	4G'	4g'	4b-	4ee-'	4E	4g'	4gg'y	4G'	4g'y	4e-	4g	4ee-	4gg	4ee-'	4ee-'	4eee-'	4eee-'
4BB-'	4B-'	4b-'	4d' 4b-'y 4ff'y	4d' 4b-'y 4ff'y	4BB	4b-'	4ff'y	4B-'	4f'y	4d	4f	4dd	4ff	4dd'y	4ff'	4ddd'	4ddd'
=70	=70	=70	=70	=70	=70	=70	=70	=70	=70	=70	=70	=70	=70	=70	=70	=70	=70
4E-'	4e-'	4e-'	4e-' 4b-'y 4gg'y	4e-' 4b-'y 4gg'y	4E	4g'	4ee-'y	4G'	4e-'y	4e-	4e-	4ee-	4ee-	4ee-'y	4gg'	4eee-'	4eee-'
4r	4r	4r	4r	4r	4r	4ryy	4r	4ryy	4r	4ryy	4r	4ryy	4r	4ryy	4r	4r	4r
=71:|	=71:|	=71:|	=71:|	=71:|	=71:|	=71:|	=71:|	=71:|	=71:|	=71:|	=71:|	=71:|	=71:|	=71:|	=71:|	=71:|	=71:|
*>C	*>C	*>C	*>C	*>C	*>C	*>C	*>C	*>C	*>C	*>C	*>C	*>C	*>C	*>C	*>C	*>C	*>C
*staff:1	*staff:2	*staff:3	*staff:4	*staff:5	*	*	*	*	*	*	*	*	*	*staff:6	*staff:6	*	*
4r	4r	4r	4r	4r	4ryy	4ryy	4ryy	4ryy	4ryy	4ryy	4ryy	4ryy	4ryy	4g'y	4gg'	4ryy	4ryy
=72	=72	=72	=72	=72	=72	=72	=72	=72	=72	=72	=72	=72	=72	=72	=72	=72	=72
2.r	2.r	2.r	2.r	2.r	2.ryy	2.ryy	2.ryy	2.ryy	2.ryy	2.ryy	2.ryy	2.ryy	2.ryy	4g'y	4gg'	2.ryy	2.ryy
.	.	.	.	.	.	.	.	.	.	.	.	.	.	4g'y	4gg'	.	.
.	.	.	.	.	.	.	.	.	.	.	.	.	.	4g'y	4gg'	.	.
=73	=73	=73	=73	=73	=73	=73	=73	=73	=73	=73	=73	=73	=73	=73	=73	=73	=73
4r	4r	4r	4r	4r	2ryy	2ryy	2ryy	2ryy	2ryy	2ryy	2ryy	2ryy	2ryy	4g'y	4gg'	2ryy	2ryy
4r	4r	4r	4r	4r	.	.	.	.	.	.	.	.	.	4ryy	4r	.	.
=74|:	=74|:	=74|:	=74|:	=74|:	=74|:	=74|:	=74|:	=74|:	=74|:	=74|:	=74|:	=74|:	=74|:	=74|:	=74|:	=74|:	=74|:
*>D	*>D	*>D	*>D	*>D	*>D	*>D	*>D	*>D	*>D	*>D	*>D	*>D	*>D	*>D	*>D	*>D	*>D
4r	4r	4r	4r	4gg'	4ryy	4ryy	4ryy	4ryy	4ryy	4ryy	4ryy	4ryy	4ryy	4ryy	4gg'	4ryy	4ryy
=75	=75	=75	=75	=75	=75	=75	=75	=75	=75	=75	=75	=75	=75	=75	=75	=75	=75
4CC	4C	2.r	4g'	4ff	2.ryy	2.ryy	2.ryy	2.ryy	2.ryy	2.ryy	2.ryy	2.ryy	2.ryy	2.ryy	4ff	2.ryy	2.ryy
4r	4c'	.	4g'	4ee	.	.	.	.	.	.	.	.	.	.	4ee	.	.
4r	4c'	.	4g'	4ee'	.	.	.	.	.	.	.	.	.	.	4ee'	.	.
=76	=76	=76	=76	=76	=76	=76	=76	=76	=76	=76	=76	=76	=76	=76	=76	=76	=76
2.r	4c'	2.r	2g	2ee	2.ryy	2.ryy	2.ryy	2.ryy	2.ryy	2.ryy	2.ryy	2.ryy	2.ryy	2.ryy	2ee	2.ryy	2.ryy
.	4c'	.	.	.	.	.	.	.	.	.	.	.	.	.	.	.	.
.	4c'	.	4f	4dd	.	.	.	.	.	.	.	.	.	.	4dd	.	.
=77	=77	=77	=77	=77	=77	=77	=77	=77	=77	=77	=77	=77	=77	=77	=77	=77	=77
.	.	.	8gq	8eeq	.	.	.	.	.	.	.	.	.	.	8eeq	.	.
4CC	4C	2.r	4f	4dd	2.ryy	2.ryy	2.ryy	2.ryy	2.ryy	2.ryy	2.ryy	2.ryy	2.ryy	2.ryy	4dd	2.ryy	2.ryy
4r	4c'	.	4e	4cc	.	.	.	.	.	.	.	.	.	.	4cc	.	.
4r	4c'	.	4e'	4cc'	.	.	.	.	.	.	.	.	.	.	4cc'	.	.
=78	=78	=78	=78	=78	=78	=78	=78	=78	=78	=78	=78	=78	=78	=78	=78	=78	=78
2.r	4c'	4r	2e	2cc	2.ryy	2.ryy	2.ryy	2.ryy	2.ryy	2.ryy	2.ryy	2.ryy	2.ryy	2.ryy	2cc	2.ryy	2.ryy
.	4c'	4r	.	.	.	.	.	.	.	.	.	.	.	.	.	.	.
.	4c'	4ez	4g#z	4ccc	.	.	.	.	.	.	.	.	.	.	4ccc	.	.
=79	=79	=79	=79	=79	=79	=79	=79	=79	=79	=79	=79	=79	=79	=79	=79	=79	=79
2.r	[2.c	2f	2a	4bb	2.ryy	2.ryy	2.ryy	2.ryy	2.ryy	2.ryy	2.ryy	2.ryy	2.ryy	2.ryy	4bb	2.ryy	2.ryy
.	.	.	.	4aa	.	.	.	.	.	.	.	.	.	.	4aa	.	.
.	.	4d#z	4f#z	4ccc	.	.	.	.	.	.	.	.	.	.	4ccc	.	.
=80	=80	=80	=80	=80	=80	=80	=80	=80	=80	=80	=80	=80	=80	=80	=80	=80	=80
4r	2c]	2e	2gn	4aa	2.ryy	2.ryy	2.ryy	2.ryy	2.ryy	2.ryy	2.ryy	2.ryy	2.ryy	2.ryy	4aa	2.ryy	2.ryy
4r	.	.	.	4gg	.	.	.	.	.	.	.	.	.	.	4gg	.	.
4EE	4E	4c	4g#	4gg#	.	.	.	.	.	.	.	.	.	.	4gg#	.	.
=81	=81	=81	=81	=81	=81	=81	=81	=81	=81	=81	=81	=81	=81	=81	=81	=81	=81
[2.FF	[2.F	2c	4b	4bb	2.ryy	2.ryy	2.ryy	2.ryy	2.ryy	2.ryy	2.ryy	2.ryy	2.ryy	2.ryy	4bb	2.ryy	2.ryy
.	.	.	4a	4aa	.	.	.	.	.	.	.	.	.	.	4aa	.	.
.	.	4c#	4gn	4ggn	.	.	.	.	.	.	.	.	.	.	4ggn	.	.
=82	=82	=82	=82	=82	=82	=82	=82	=82	=82	=82	=82	=82	=82	=82	=82	=82	=82
2FF]	2F]	2d	4f	4ff	2.ryy	2.ryy	2.ryy	2.ryy	2.ryy	2.ryy	2.ryy	2.ryy	2.ryy	2.ryy	4ff	2.ryy	2.ryy
.	.	.	4e	4ee	.	.	.	.	.	.	.	.	.	.	4ee	.	.
4FF#	4F#	4F#	4d	4dd	.	.	.	.	.	.	.	.	.	.	4dd	.	.
=83	=83	=83	=83	=83	=83	=83	=83	=83	=83	=83	=83	=83	=83	=83	=83	=83	=83
4AA	4A	4A	2.c	2.cc	2.ryy	2.ryy	2.ryy	2.ryy	2.ryy	2.ryy	2.ryy	2.ryy	2.ryy	2.ryy	2.cc	2.ryy	2.ryy
4GG	4G	4G	.	.	.	.	.	.	.	.	.	.	.	.	.	.	.
4FF#	4F#	4F#	.	.	.	.	.	.	.	.	.	.	.	.	.	.	.
=84	=84	=84	=84	=84	=84	=84	=84	=84	=84	=84	=84	=84	=84	=84	=84	=84	=84
4GG'	4G'	4G'	4B'	4b'	2ryy	2ryy	2ryy	2ryy	2ryy	2ryy	2ryy	2ryy	2ryy	2ryy	4b'	2ryy	2ryy
4r	4r	4r	4r	4r	.	.	.	.	.	.	.	.	.	.	4r	.	.
=85:|	=85:|	=85:|	=85:|	=85:|	=85:|	=85:|	=85:|	=85:|	=85:|	=85:|	=85:|	=85:|	=85:|	=85:|	=85:|	=85:|	=85:|
*>E	*>E	*>E	*>E	*>E	*>E	*>E	*>E	*>E	*>E	*>E	*>E	*>E	*>E	*>E	*>E	*>E	*>E
*staff:13	*staff:14	*staff:15	*staff:16	*staff:17	*	*	*	*	*	*staff:18	*staff:18	*	*	*	*staff:19	*	*
4r	4r	4r	4A#'	4cc#'	4ryy	4ryy	4ryy	4ryy	4ryy	4r	4r	4ryy	4ryy	4ryy	4cc#'	4ryy	4ryy
=86	=86	=86	=86	=86	=86	=86	=86	=86	=86	=86	=86	=86	=86	=86	=86	=86	=86
2.r	4GG	2.r	4A#	4cc#	2.ryy	2.ryy	2.ryy	2.ryy	2.ryy	2.r	2.r	2.ryy	2.ryy	2.ryy	4cc#	2.ryy	2.ryy
.	4G	.	4B	4dd	.	.	.	.	.	.	.	.	.	.	4dd	.	.
.	4G	.	4B'	4dd'	.	.	.	.	.	.	.	.	.	.	4dd'	.	.
=87	=87	=87	=87	=87	=87	=87	=87	=87	=87	=87	=87	=87	=87	=87	=87	=87	=87
2.r	4G	2.r	2B	2dd	2.ryy	2.ryy	2.ryy	2.ryy	2.ryy	2.r	2.r	2.ryy	2.ryy	2.ryy	2dd	2.ryy	2.ryy
.	4G	.	.	.	.	.	.	.	.	.	.	.	.	.	.	.	.
.	4G	.	4c#	4ee	.	.	.	.	.	.	.	.	.	.	4ee	.	.
=88	=88	=88	=88	=88	=88	=88	=88	=88	=88	=88	=88	=88	=88	=88	=88	=88	=88
2.r	4GG	2.r	4c#	4ee	2.ryy	2.ryy	2.ryy	2.ryy	2.ryy	2.r	2.r	2.ryy	2.ryy	2.ryy	4ee	2.ryy	2.ryy
.	4G	.	4d	4ff	.	.	.	.	.	.	.	.	.	.	4ff	.	.
.	4G	.	4d'	4ff'	.	.	.	.	.	.	.	.	.	.	4ff'	.	.
=89	=89	=89	=89	=89	=89	=89	=89	=89	=89	=89	=89	=89	=89	=89	=89	=89	=89
2.r	4G	2.r	2d	2ff	2.ryy	2.ryy	2.ryy	2.ryy	2.ryy	2.r	2.r	2.ryy	2.ryy	2.ryy	2ff	2.ryy	2.ryy
.	4G	.	.	.	.	.	.	.	.	.	.	.	.	.	.	.	.
.	4G	.	4d#	4ff#	.	.	.	.	.	.	.	.	.	.	4ff#	.	.
=90	=90	=90	=90	=90	=90	=90	=90	=90	=90	=90	=90	=90	=90	=90	=90	=90	=90
2.r	[2.G	2.r	4fn	4aa	2.ryy	2.ryy	2.ryy	2.ryy	2.ryy	2.r	2.r	2.ryy	2.ryy	2.ryy	4aa	2.ryy	2.ryy
.	.	.	4e	4gg	.	.	.	.	.	.	.	.	.	.	4gg	.	.
.	.	.	4g	4bb-	.	.	.	.	.	.	.	.	.	.	4bb-	.	.
=91	=91	=91	=91	=91	=91	=91	=91	=91	=91	=91	=91	=91	=91	=91	=91	=91	=91
2.r	2.G_	2.r	4f	4aa	2.ryy	2.ryy	2.ryy	2.ryy	2.ryy	2.r	2.r	2.ryy	2.ryy	2.ryy	4aa	2.ryy	2.ryy
.	.	.	4e	4gg	.	.	.	.	.	.	.	.	.	.	4gg	.	.
.	.	.	4d	4ff	.	.	.	.	.	.	.	.	.	.	4ff	.	.
=92	=92	=92	=92	=92	=92	=92	=92	=92	=92	=92	=92	=92	=92	=92	=92	=92	=92
2.r	2.G_	2.r	4c	4ee	2.ryy	2.ryy	2.ryy	2.ryy	2.ryy	2.r	2.r	2.ryy	2.ryy	2.ryy	4ee	2.ryy	2.ryy
.	.	.	4d	4ff	.	.	.	.	.	.	.	.	.	.	4ff	.	.
.	.	.	4e	4gg	.	.	.	.	.	.	.	.	.	.	4gg	.	.
=93	=93	=93	=93	=93	=93	=93	=93	=93	=93	=93	=93	=93	=93	=93	=93	=93	=93
2.r	2G]	2.r	2B	2dd	2.ryy	2.ryy	2.ryy	2.ryy	2.ryy	2.ryy	4r	2.ryy	2.ryy	2.ryy	2dd	2.ryy	2.ryy
.	.	.	.	.	.	.	.	.	.	.	4r	.	.	.	.	.	.
.	4r	.	4r	4gg'	.	.	.	.	.	.	4g'	.	.	.	4gg'	.	.
=94	=94	=94	=94	=94	=94	=94	=94	=94	=94	=94	=94	=94	=94	=94	=94	=94	=94
4CC	4C	2.r	4g'	4ff	2.ryy	2.ryy	2.ryy	2.ryy	2.ryy	2.ryy	4f	2.ryy	2.ryy	2.ryy	4ff	2.ryy	2.ryy
4r	4c'	.	4g'	4ee	.	.	.	.	.	.	4e	.	.	.	4ee	.	.
4r	4c'	.	4g'	4ee'	.	.	.	.	.	.	4e'	.	.	.	4ee'	.	.
=95	=95	=95	=95	=95	=95	=95	=95	=95	=95	=95	=95	=95	=95	=95	=95	=95	=95
2.r	4c'	4r	2g	2ee	2.ryy	2.ryy	2.ryy	2.ryy	2.ryy	2.ryy	2e	2.ryy	2.ryy	2.ryy	2ee	2.ryy	2.ryy
.	4c'	4r	.	.	.	.	.	.	.	.	.	.	.	.	.	.	.
.	4c'	4b'	4f	4dd	.	.	.	.	.	.	4d	.	.	.	4dd	.	.
=96	=96	=96	=96	=96	=96	=96	=96	=96	=96	=96	=96	=96	=96	=96	=96	=96	=96
.	.	.	8gq	8eeq	.	.	.	.	.	.	8eq	.	.	.	8eeq	.	.
4CC	4C	4b	4f	4dd	2.ryy	2.ryy	2.ryy	2.ryy	2.ryy	2.ryy	4d	2.ryy	2.ryy	2.ryy	4dd	2.ryy	2.ryy
4r	4c'	4cc	4e	4cc	.	.	.	.	.	.	4c	.	.	.	4cc	.	.
4r	4c'	4cc'	4e'	4cc'	.	.	.	.	.	.	4c'	.	.	.	4cc'	.	.
=97	=97	=97	=97	=97	=97	=97	=97	=97	=97	=97	=97	=97	=97	=97	=97	=97	=97
2.r	4c'	2cc	2e	2cc	2.ryy	2.ryy	2.ryy	2.ryy	2.ryy	2.ryy	2c	2.ryy	2.ryy	2.ryy	2cc	2.ryy	2.ryy
.	4c'	.	.	.	.	.	.	.	.	.	.	.	.	.	.	.	.
.	4c'	4ez	4g#z	4ccc	.	.	.	.	.	.	4r	.	.	.	4ccc	.	.
=98	=98	=98	=98	=98	=98	=98	=98	=98	=98	=98	=98	=98	=98	=98	=98	=98	=98
2.r	[2.c	2f	2a	4bb	2.ryy	2.ryy	2.ryy	2.ryy	2.ryy	2.r	2.r	2.ryy	2.ryy	2.ryy	4bb	2.ryy	2.ryy
.	.	.	.	4aa	.	.	.	.	.	.	.	.	.	.	4aa	.	.
.	.	4d#z	4f#z	4ccc	.	.	.	.	.	.	.	.	.	.	4ccc	.	.
=99	=99	=99	=99	=99	=99	=99	=99	=99	=99	=99	=99	=99	=99	=99	=99	=99	=99
*staff:6	*staff:7	*staff:8	*staff:9	*staff:10	*	*	*	*	*	*	*staff:11	*	*	*	*staff:12	*	*
2.r	2c]	2e	2gn	4aa	2.ryy	2.ryy	2.ryy	2.ryy	2.ryy	2.ryy	4r	2.ryy	2.ryy	2.ryy	4aa	2.ryy	2.ryy
.	.	.	.	4gg	.	.	.	.	.	.	4r	.	.	.	4gg	.	.
.	4r	4c	4e	4eee	.	.	.	.	.	.	4e	.	.	.	4eee	.	.
=100	=100	=100	=100	=100	=100	=100	=100	=100	=100	=100	=100	=100	=100	=100	=100	=100	=100
4r	4r	4dn	4fn	4ddd	2.ryy	2.ryy	2.ryy	2.ryy	2.ryy	2.ryy	4d	2.ryy	2.ryy	2.ryy	4ddd	2.ryy	2.ryy
4r	4r	4e	4g	4ccc	.	.	.	.	.	.	4c	.	.	.	4ccc	.	.
4EE	4E	4r	4G	4bb	.	.	.	.	.	.	4B	.	.	.	4bb	.	.
=101	=101	=101	=101	=101	=101	=101	=101	=101	=101	=101	=101	=101	=101	=101	=101	=101	=101
4FF	4F	4r	4A	4aa	2.ryy	2.ryy	2.ryy	2.ryy	2.ryy	2.ryy	4A	2.ryy	2.ryy	2.ryy	4aa	2.ryy	2.ryy
4GG	4G	4r	4B	4gg	.	.	.	.	.	.	4G	.	.	.	4gg	.	.
4AA	4A	4d	4c	4ff#	.	.	.	.	.	.	4F#	.	.	.	4ff#	.	.
=102	=102	=102	=102	=102	=102	=102	=102	=102	=102	=102	=102	=102	=102	=102	=102	=102	=102
2.GG	2.G	2.c	2.e	2.gg	2.ryy	2.ryy	2.ryy	2.ryy	2.ryy	2.ryy	2G	2.ryy	2.ryy	2.ryy	2.gg	2.ryy	2.ryy
.	.	.	.	.	.	.	.	.	.	.	4g	.	.	.	.	.	.
=103	=103	=103	=103	=103	=103	=103	=103	=103	=103	=103	=103	=103	=103	=103	=103	=103	=103
2.GG	2.G	2f	4d	4ffn	2.ryy	2.ryy	2.ryy	2.ryy	2.ryy	2.ryy	4fn	2.ryy	2.ryy	2.ryy	4ffn	2.ryy	2.ryy
.	.	.	4f	4dd	.	.	.	.	.	.	4d	.	.	.	4dd	.	.
.	.	4d	4f'	4b	.	.	.	.	.	.	4B	.	.	.	4b	.	.
=104	=104	=104	=104	=104	=104	=104	=104	=104	=104	=104	=104	=104	=104	=104	=104	=104	=104
2CC	2C	2.B	2.f	2.dd	2.ryy	2.ryy	2.ryy	2.ryy	2.ryy	2.ryy	2.d	2.ryy	2.ryy	2.ryy	2.dd	2.ryy	2.ryy
4GG	4G	.	.	.	.	.	.	.	.	.	.	.	.	.	.	.	.
=105	=105	=105	=105	=105	=105	=105	=105	=105	=105	=105	=105	=105	=105	=105	=105	=105	=105
4C	4c	4c	4e	4cc	2ryy	2ryy	2ryy	2ryy	2ryy	2ryy	4c	2ryy	2ryy	2ryy	4cc	2ryy	2ryy
4r	4r	4r	4r	4r	.	.	.	.	.	.	4r	.	.	.	4r	.	.
=106:|	=106:|	=106:|	=106:|	=106:|	=106:|	=106:|	=106:|	=106:|	=106:|	=106:|	=106:|	=106:|	=106:|	=106:|	=106:|	=106:|	=106:|
*>F	*>F	*>F	*>F	*>F	*>F	*>F	*>F	*>F	*>F	*>F	*>F	*>F	*>F	*>F	*>F	*>F	*>F
*	*	*	*	*	*	*	*	*	*	*staff:11	*	*	*	*	*	*	*
4r	4r	4g'	4b'	4dd'	4ryy	4ryy	4ryy	4ryy	4ryy	4r	4r	4ryy	4ryy	4ryy	4r	4ryy	4ryy
=107	=107	=107	=107	=107	=107	=107	=107	=107	=107	=107	=107	=107	=107	=107	=107	=107	=107
*	*	*	*	*	*	*	*	*	*	*	*	*	*	*staff:12	*	*	*
2.r	2.r	4g	4b	4dd	2.ryy	2.ryy	2.ryy	2.ryy	2.ryy	2.r	2.r	2.ryy	2.ryy	2.r	2.r	2.ryy	2.ryy
.	.	4f#	4cc	4ee-	.	.	.	.	.	.	.	.	.	.	.	.	.
.	.	4f#'	4cc'	4ee-'	.	.	.	.	.	.	.	.	.	.	.	.	.
=108	=108	=108	=108	=108	=108	=108	=108	=108	=108	=108	=108	=108	=108	=108	=108	=108	=108
4r	4r	2f#	2cc	2ee-	2.ryy	2.ryy	2.ryy	2.ryy	2.ryy	2.r	2.r	2.ryy	2.ryy	2.r	2.r	2.ryy	2.ryy
4r	4r	.	.	.	.	.	.	.	.	.	.	.	.	.	.	.	.
4FF#	4F#	4F#X	4e-	4cc	.	.	.	.	.	.	.	.	.	.	.	.	.
=109	=109	=109	=109	=109	=109	=109	=109	=109	=109	=109	=109	=109	=109	=109	=109	=109	=109
4FF#	4F#	4F#	4e-	4cc	2.ryy	2.ryy	2.ryy	2.ryy	2.ryy	2.r	2.r	2.ryy	2.ryy	2.r	2.r	2.ryy	2.ryy
4GG	4G	4G	4d	4b	.	.	.	.	.	.	.	.	.	.	.	.	.
4GG'	4G'	4G'	4d'	4b'	.	.	.	.	.	.	.	.	.	.	.	.	.
=110	=110	=110	=110	=110	=110	=110	=110	=110	=110	=110	=110	=110	=110	=110	=110	=110	=110
[2.GG	[2.G	2G	2d	2b	2.ryy	2.ryy	2.ryy	2.ryy	2.ryy	2.r	2.r	2.ryy	2.ryy	2.r	2.r	2.ryy	2.ryy
.	.	4B	4d	4gg	.	.	.	.	.	.	.	.	.	.	.	.	.
=111	=111	=111	=111	=111	=111	=111	=111	=111	=111	=111	=111	=111	=111	=111	=111	=111	=111
2.GG]	2.G_	2c	2e-	4ff#	2.ryy	2.ryy	2.ryy	2.ryy	2.ryy	2.r	2.r	2.ryy	2.ryy	2.r	2.r	2.ryy	2.ryy
.	.	.	.	4ee-	.	.	.	.	.	.	.	.	.	.	.	.	.
.	.	4e-	4f#	4cc	.	.	.	.	.	.	.	.	.	.	.	.	.
=112	=112	=112	=112	=112	=112	=112	=112	=112	=112	=112	=112	=112	=112	=112	=112	=112	=112
*staff:1	*staff:1	*staff:2	*staff:3	*staff:4	*	*	*	*	*	*	*	*staff:5	*staff:5	*	*	*	*
[2.GG	2.G_	2d	2g	4b	2.ryy	2.ryy	2.ryy	2.ryy	2.ryy	2.ryy	2.ryy	2.r	2.r	2.ryy	2.ryy	2.ryy	2.ryy
.	.	.	.	4g	.	.	.	.	.	.	.	.	.	.	.	.	.
.	.	4B	4d	4gg	.	.	.	.	.	.	.	.	.	.	.	.	.
=113	=113	=113	=113	=113	=113	=113	=113	=113	=113	=113	=113	=113	=113	=113	=113	=113	=113
2.GG_	2.G_	2c	2e-	4ff#	2.ryy	2.ryy	2.ryy	2.ryy	2.ryy	2.ryy	2.ryy	2.r	2.r	2.ryy	2.ryy	2.ryy	2.ryy
.	.	.	.	4ee-	.	.	.	.	.	.	.	.	.	.	.	.	.
.	.	4e-	4f#	4cc	.	.	.	.	.	.	.	.	.	.	.	.	.
=114	=114	=114	=114	=114	=114	=114	=114	=114	=114	=114	=114	=114	=114	=114	=114	=114	=114
2GG]	2G]	2d	2g	4b	2.ryy	2.ryy	2.ryy	2.ryy	2.ryy	2.ryy	2.ryy	4ryy	4r	2.ryy	2.ryy	2.ryy	2.ryy
.	.	.	.	4g	.	.	.	.	.	.	.	4ryy	4r	.	.	.	.
4GG	4G	4g	4g	4g	.	.	.	.	.	.	.	4b	4dd	.	.	.	.
=115	=115	=115	=115	=115	=115	=115	=115	=115	=115	=115	=115	=115	=115	=115	=115	=115	=115
4FF#	4F#	4f#	4f#	4f#	2.ryy	2.ryy	2.ryy	2.ryy	2.ryy	2.ryy	2.ryy	2.cc	2.ee-	2.ryy	2.ryy	2.ryy	2.ryy
4EE-	4E-	4e-	4e-	4e-	.	.	.	.	.	.	.	.	.	.	.	.	.
4CC	4C	4c	4c	4c	.	.	.	.	.	.	.	.	.	.	.	.	.
=116	=116	=116	=116	=116	=116	=116	=116	=116	=116	=116	=116	=116	=116	=116	=116	=116	=116
4BBB	4BB	4B	4B	4B	2.ryy	2.ryy	2.ryy	2.ryy	2.ryy	2.ryy	2.ryy	2.b	2.dd	2.ryy	2.ryy	2.ryy	2.ryy
4GGG	4GG	4G	4G	4G	.	.	.	.	.	.	.	.	.	.	.	.	.
4r	4r	4r	4r	4fn	.	.	.	.	.	.	.	.	.	.	.	.	.
=117	=117	=117	=117	=117	=117	=117	=117	=117	=117	=117	=117	=117	=117	=117	=117	=117	=117
4GGG	4GG	4G	4B	4d	2.ryy	2.ryy	2.ryy	2.ryy	2.ryy	2.ryy	2.ryy	2.dd	[2.ff	2.ryy	2.ryy	2.ryy	2.ryy
4r	4r	4r	4r	4B	.	.	.	.	.	.	.	.	.	.	.	.	.
4r	4r	4r	4r	4a-	.	.	.	.	.	.	.	.	.	.	.	.	.
=118	=118	=118	=118	=118	=118	=118	=118	=118	=118	=118	=118	=118	=118	=118	=118	=118	=118
4GGG	4GG	4d	4B	4f	2.ryy	2.ryy	2.ryy	2.ryy	2.ryy	2.ryy	2.ryy	2.dd	2.ff_	2.ryy	2.ryy	2.ryy	2.ryy
4r	4r	4r	4r	4d	.	.	.	.	.	.	.	.	.	.	.	.	.
4r	4r	4r	4r	4dd	.	.	.	.	.	.	.	.	.	.	.	.	.
=119	=119	=119	=119	=119	=119	=119	=119	=119	=119	=119	=119	=119	=119	=119	=119	=119	=119
4GGG	4GG	4d	4d 4f	4bn	2.ryy	2.ryy	2.ryy	2.ryy	2.ryy	2.ryy	2.ryy	2.dd	2.ff_	2.ryy	2.ryy	2.ryy	2.ryy
4r	4r	4r	4r	4g	.	.	.	.	.	.	.	.	.	.	.	.	.
4r	4r	4r	4r	4ff	.	.	.	.	.	.	.	.	.	.	.	.	.
=120	=120	=120	=120	=120	=120	=120	=120	=120	=120	=120	=120	=120	=120	=120	=120	=120	=120
4GGG	4GG	4B	4d 4f	4dd	2.ryy	2.ryy	2.ryy	2.ryy	2.ryy	2.ryy	2.ryy	2dd	2ff]	2.ryy	2.ryy	2.ryy	2.ryy
4r	4r	4r	4r	4b	.	.	.	.	.	.	.	.	.	.	.	.	.
4r	4r	4r	4r	4aa-	.	.	.	.	.	.	.	4a-	4aa-X	.	.	.	.
=121	=121	=121	=121	=121	=121	=121	=121	=121	=121	=121	=121	=121	=121	=121	=121	=121	=121
4GGG	4GG	4B	4d 4f	4ff	2.ryy	2.ryy	2.ryy	2.ryy	2.ryy	2.ryy	2.ryy	4f	4ff	2.ryy	2.ryy	2.ryy	2.ryy
4r	4r	4r	4r	4dd	.	.	.	.	.	.	.	4d	4dd	.	.	.	.
4r	4r	4r	4r	4aa-	.	.	.	.	.	.	.	4a-	4aa-X	.	.	.	.
=122	=122	=122	=122	=122	=122	=122	=122	=122	=122	=122	=122	=122	=122	=122	=122	=122	=122
2.r	2.r	2.r	2.r	4ff	2.ryy	2.ryy	2.ryy	2.ryy	2.ryy	2.ryy	2.ryy	4f	4ff	2.ryy	2.ryy	2.ryy	2.ryy
.	.	.	.	4dd	.	.	.	.	.	.	.	4d	4dd	.	.	.	.
.	.	.	.	4aa-	.	.	.	.	.	.	.	4a-	4aa-X	.	.	.	.
=123	=123	=123	=123	=123	=123	=123	=123	=123	=123	=123	=123	=123	=123	=123	=123	=123	=123
2.r	2.r	2.r	2.r	4ff	2.ryy	2.ryy	2.ryy	2.ryy	2.ryy	2.ryy	2.ryy	4f	4ff	2.ryy	2.ryy	2.ryy	2.ryy
.	.	.	.	4dd	.	.	.	.	.	.	.	4d	4dd	.	.	.	.
.	.	.	.	4aa-	.	.	.	.	.	.	.	4a-	4aa-X	.	.	.	.
=124	=124	=124	=124	=124	=124	=124	=124	=124	=124	=124	=124	=124	=124	=124	=124	=124	=124
4r	4r	4r	4r	4ff	2ryy	2ryy	2ryy	2ryy	2ryy	2ryy	2ryy	4f	4ff	2ryy	2ryy	2ryy	2ryy
4r	4r	4r	4r	4dd	.	.	.	.	.	.	.	4d	4dd	.	.	.	.
==125||	==125||	==125||	==125||	==125||	==125||	==125||	==125||	==125||	==125||	==125||	==125||	==125||	==125||	==125||	==125||	==125||	==125||
*-	*-	*-	*-	*-	*-	*-	*-	*-	*-	*-	*-	*-	*-	*-	*-	*-	*-
